X: 24459
T: Lucky In Love
R: reel
M: 4/4
K: Gmajor
|g2 gd BGGA|BGdB BAAB|gfgd BGAB|cBAc BG G2|
efed BGGA|BGdB BAAB|g2 gd BGAB|ceAc BGGA|
BGdG eGdG|BGdB BAAc|BGdG eGdG|BdAc BGGA|
BGdG eGdG|BGdB BAAB|GABd eaag|fdef gabg|

